neru-dark-classic/22x22/status/audio-input-microphone-low-symbolic.svg

<?xml version="1.0" encoding="UTF-8" standalone="no"?>
<svg
   xmlns:dc="http://purl.org/dc/elements/1.1/"
   xmlns:cc="http://creativecommons.org/ns#"
   xmlns:rdf="http://www.w3.org/1999/02/22-rdf-syntax-ns#"
   xmlns:svg="http://www.w3.org/2000/svg"
   xmlns="http://www.w3.org/2000/svg"
   xmlns:sodipodi="http://sodipodi.sourceforge.net/DTD/sodipodi-0.dtd"
   xmlns:inkscape="http://www.inkscape.org/namespaces/inkscape"
   width="22"
   height="22"
   version="1.1"
   id="svg4"
   sodipodi:docname="audio-input-microphone-low-symbolic.svg"
   inkscape:version="0.92.1 r">
  <metadata
     id="metadata10">
    <rdf:RDF>
      <cc:Work
         rdf:about="">
        <dc:format>image/svg+xml</dc:format>
        <dc:type
           rdf:resource="http://purl.org/dc/dcmitype/StillImage" />
      </cc:Work>
    </rdf:RDF>
  </metadata>
  <defs
     id="defs8" />
  <sodipodi:namedview
     pagecolor="#ffffff"
     bordercolor="#666666"
     borderopacity="1"
     objecttolerance="10"
     gridtolerance="10"
     guidetolerance="10"
     inkscape:pageopacity="0"
     inkscape:pageshadow="2"
     inkscape:window-width="769"
     inkscape:window-height="480"
     id="namedview6"
     showgrid="false"
     inkscape:zoom="10.727273"
     inkscape:cx="11"
     inkscape:cy="11"
     inkscape:window-x="0"
     inkscape:window-y="0"
     inkscape:window-maximized="0"
     inkscape:current-layer="svg4" />
  <path
     style="opacity:0.3;fill:#d1d9e3;stroke-width:0.875"
     d="M 11,4 C 9.5475,4 8.375,5.1725 8.375,6.625 V 11 c 0,1.4525 1.1725,2.625 2.625,2.625 1.4525,0 2.625,-1.1725 2.625,-2.625 V 6.625 C 13.625,5.1725 12.4525,4 11,4 Z m 0,1.75 c 0.48125,0 0.875,0.39375 0.875,0.875 V 11 c 0,0.48125 -0.39375,0.875 -0.875,0.875 -0.48125,0 -0.875,-0.39375 -0.875,-0.875 V 6.625 C 10.125,6.14375 10.51875,5.75 11,5.75 Z M 5.75,10.125 V 11 c 0,2.59875 1.89,4.75125 4.375,5.17125 V 18 h 1.75 V 16.17125 C 14.36,15.75125 16.25,13.59875 16.25,11 V 10.125 H 14.5 V 11 c 0,1.95125 -1.54875,3.5 -3.5,3.5 -1.95125,0 -3.5,-1.54875 -3.5,-3.5 v -0.875 z"
     id="path2"
     inkscape:connector-curvature="0" />
</svg>

<svg xmlns="http://www.w3.org/2000/svg" width="22" height="22"><path d="M11 4a2.621 2.621 0 0 0-2.625 2.625V11A2.621 2.621 0 0 0 11 13.625 2.621 2.621 0 0 0 13.625 11V6.625A2.621 2.621 0 0 0 11 4zm0 1.75c.481 0 .875.394.875.875V11a.878.878 0 0 1-.875.875.878.878 0 0 1-.875-.875V6.625c0-.481.394-.875.875-.875zm-5.25 4.375V11a5.248 5.248 0 0 0 4.375 5.171V18h1.75v-1.829A5.248 5.248 0 0 0 16.25 11v-.875H14.5V11c0 1.951-1.549 3.5-3.5 3.5A3.477 3.477 0 0 1 7.5 11v-.875z" opacity=".3" fill="#d1d9e3"/></svg>
